!!!OTL: DAS SCHOENSTE LEBEN
!!!ARE: Europa, Mitteleuropa, Deutschland
!!!SCT: B0570
!!!YEM: Copyright 1995, estate of Helmut Schaffrath.
**kern
*ICvox
*Ivox
!! Mixed meters:  3/4; 4/4
*M3/4
*k[b-]
*F:
{8c
=1
8.f
16g
8a
8b-
8cc
8dd
=2
2cc}
{4a
=3
8.cc
16dd
8cc
8b-
8a
8g
=4
4f
4r}
{4f
=5
8.d
16e
4f
4d
=6
4e
4a
8r}
{8g
=7
8.f
16g
4a
4f
=8
4g
4cc
8r}
{8b-
=9
8.a
16a
8a
8a
8.g
16a
=10
2b-}
{4b-
=11
8.bn
16bn
8bn
8bn
8a
8bn
=12
2cc}
{4b-
=13
*M4/4
4.a
8cc
8a
8cc
8.ff
16ee
=14
*M3/4
4ee
4dd
4r}
=15
{4b-
=16
*M4/4
4.g
8b-
8g
8b-
8ee
8dd
=17
*M3/4
4dd
4cc
4r}
=18
{4a
=19
*M4/4
4.f
8a
8f
8a
8.dd
16cc
=20
*M3/4
4cc
4b-
4r}
=21
{4f#
=22
*M4/4
4a
4g
4r
4e
=23
4g
4f
4.r}
==
!!!AGN: Staende -, Soldaten - Lied, national; Liebes - Lied
!!!ONB: ESAC (Essen Associative Code) Database: BOEHME
!!!AMT: irregular
!!!AIN: vox
!!!EED: Helmut Schaffrath
!!!EEV: 1.0
*-
